icons/arrow/arrow-left-2.svg

<svg width="14" height="14" viewBox="0 0 14 14" fill="none" xmlns="http://www.w3.org/2000/svg">
<path d="M4.64648 2.64651C4.84175 2.45125 5.15825 2.45125 5.35352 2.64651C5.54876 2.84178 5.54877 3.15829 5.35352 3.35355L4.20703 4.50003H11C11.2761 4.50003 11.5 4.72389 11.5 5.00003C11.5 5.27616 11.2761 5.50003 11 5.50003H4.20703L5.35352 6.64651L5.41797 6.72464C5.45284 6.77746 5.4756 6.83566 5.48828 6.89554C5.49034 6.9052 5.49071 6.91509 5.49219 6.92484C5.49528 6.94533 5.49751 6.96568 5.49805 6.98636C5.49832 6.99648 5.49838 7.00651 5.49805 7.01663C5.4974 7.03531 5.49589 7.05377 5.49316 7.0723C5.49111 7.08641 5.48862 7.10036 5.48535 7.11429C5.48112 7.13225 5.47499 7.14953 5.46875 7.16702C5.4654 7.17644 5.46291 7.1861 5.45898 7.19534C5.4518 7.2122 5.4427 7.22803 5.43359 7.24417C5.41176 7.28289 5.38649 7.32057 5.35352 7.35355L4.20703 8.50003H11L11.1006 8.5098C11.3285 8.55633 11.5 8.75832 11.5 9.00003C11.5 9.24173 11.3285 9.44374 11.1006 9.49026L11 9.50003H4.20703L5.35352 10.6465L5.41797 10.7246C5.54612 10.9187 5.52437 11.1827 5.35352 11.3535C5.18266 11.5244 4.91868 11.5461 4.72461 11.418L4.64648 11.3535L2.29297 9.00003L4.29297 7.00003L2.29297 5.00003L4.64648 2.64651Z" fill="red"/>
</svg>

<svg xmlns="http://www.w3.org/2000/svg" width="14" height="14" fill="none" viewBox="0 0 14 14"><path fill="red" d="M4.646 2.647a.5.5 0 1 1 .708.707L4.207 4.5H11a.5.5 0 0 1 0 1H4.207l1.147 1.147.064.078a.5.5 0 0 1 .07.17l.004.03a.5.5 0 0 1-.023.242l-.01.028q-.011.025-.025.05a.5.5 0 0 1-.08.109L4.207 8.5H11l.1.01a.5.5 0 0 1 0 .98l-.1.01H4.207l1.147 1.146.064.079a.5.5 0 0 1-.693.693l-.079-.064L2.293 9l2-2-2-2z"/></svg>
